theory/system/roles/learner/learner.svg

<svg viewBox="0 0 198.43 198.43" xmlns="http://www.w3.org/2000/svg"><path d="m180.8 157.17-72.31-125.25c-4.55-7.87-14-7.86-18.55 0l-72.32 125.25c-4.54 7.87.2 16.07 9.28 16.07h144.63c9.08 0 13.81-8.24 9.27-16.07zm-81.59-116.52 32.15 55.69-32.15 18.56-32.15-18.56zm-38.35 66.42 32.14 18.57v35.2h-63.18zm44.55 53.77v-35.2l32.15-18.57 31 53.77z" fill="#f9c716"/></svg>

<svg id="Layer_1" data-name="Layer 1" xmlns="http://www.w3.org/2000/svg" viewBox="0 0 198.43 198.43"><defs><style>.cls-1{fill:#f9c716;}</style></defs><path class="cls-1" d="M180.8,157.17,108.49,31.92c-4.55-7.87-14-7.86-18.55,0L17.62,157.17c-4.54,7.87.2,16.07,9.28,16.07H171.53C180.61,173.24,185.34,165,180.8,157.17ZM99.21,40.65l32.15,55.69L99.21,114.9,67.06,96.34ZM60.86,107.07,93,125.64v35.2H29.82Zm44.55,53.77v-35.2l32.15-18.57,31,53.77Z"/></svg>
